lib/build/svg/brand/google-drive.svg

<svg width="24" height="24" viewBox="0 0 24 24" fill="none" xmlns="http://www.w3.org/2000/svg">
<g clip-path="url(#clip0)">
<path d="M3.51203 18.3152L4.39406 19.8386C4.57734 20.1594 4.84078 20.4114 5.15008 20.5947C6.03602 19.4702 6.65258 18.6072 7.00008 18.0059C7.35266 17.3956 7.78602 16.441 8.30016 15.1422C6.91453 14.9598 5.86453 14.8686 5.15016 14.8686C4.46445 14.8686 3.41445 14.9598 2 15.1422C2 15.4973 2.09164 15.8523 2.27492 16.1731L3.51203 18.3152V18.3152Z" fill="#0066DA"/>
<path d="M18.8501 20.5947C19.1594 20.4114 19.4229 20.1594 19.6061 19.8387L19.9727 19.2087L21.7253 16.1731C21.9052 15.8593 21.9999 15.5039 22.0002 15.1422C20.5775 14.9598 19.5294 14.8686 18.8559 14.8686C18.1319 14.8686 17.0838 14.9598 15.7115 15.1422C16.2195 16.4481 16.6472 17.4027 16.9944 18.0059C17.3447 18.6144 17.9632 19.4773 18.8501 20.5947V20.5947Z" fill="#EA4335"/>
<path d="M12.0001 8.72742C13.0251 7.48953 13.7315 6.53492 14.1192 5.86375C14.4315 5.32328 14.7752 4.46031 15.1502 3.27492C14.8409 3.09164 14.4858 3 14.1192 3H9.88095C9.51439 3 9.15939 3.10313 8.85001 3.27492C9.32704 4.63445 9.73189 5.60203 10.0644 6.17758C10.4319 6.81367 11.0771 7.66359 12.0001 8.72742Z" fill="#00832D"/>
<path d="M15.7 15.1422H8.30014L5.15014 20.5947C5.45936 20.778 5.81444 20.8696 6.181 20.8696H17.8191C18.1857 20.8696 18.5408 20.7665 18.8501 20.5946L15.7001 15.1422H15.7Z" fill="#2684FC"/>
<path d="M12.0001 8.72745L8.85008 3.27502C8.5407 3.45831 8.27727 3.71026 8.09398 4.03104L2.27492 14.1113C2.09501 14.4251 2.00024 14.7805 2 15.1422H8.30016L12.0002 8.72745H12.0001Z" fill="#00AC47"/>
<path d="M18.8158 9.07107L15.9062 4.03092C15.723 3.71014 15.4594 3.45818 15.1501 3.2749L12.0001 8.7274L15.7 15.1422H21.9887C21.9887 14.787 21.8971 14.432 21.7138 14.1112L18.8158 9.07107Z" fill="#FFBA00"/>
</g>
<defs>
<clipPath id="clip0">
<rect width="20" height="17.8906" fill="white" transform="translate(2 3)"/>
</clipPath>
</defs>
</svg>

<svg width="24" height="24" viewBox="0 0 24 24" fill="none" xmlns="http://www.w3.org/2000/svg">
  <path d="M3.512 18.315l.882 1.524c.183.32.447.572.756.756.886-1.125 1.503-1.988 1.85-2.59.353-.61.786-1.564 1.3-2.863-1.385-.182-2.435-.273-3.15-.273-.686 0-1.736.09-3.15.273 0 .355.092.71.275 1.031l1.237 2.142z" fill="#0066DA"/>
  <path d="M18.85 20.595a2.08 2.08 0 00.756-.756l.367-.63 1.752-3.036c.18-.314.275-.67.275-1.03-1.422-.183-2.47-.274-3.144-.274-.724 0-1.772.09-3.145.273.508 1.306.936 2.26 1.283 2.864.35.608.97 1.471 1.856 2.589z" fill="#EA4335"/>
  <path d="M12 8.727c1.025-1.237 1.732-2.192 2.12-2.863.312-.54.655-1.404 1.03-2.59A2.014 2.014 0 0014.12 3H9.88a2.13 2.13 0 00-1.031.275c.477 1.36.882 2.327 1.214 2.903.368.636 1.013 1.486 1.936 2.55z" fill="#00832D"/>
  <path d="M15.7 15.142H8.3l-3.15 5.453c.31.183.664.275 1.031.275h11.638a2.14 2.14 0 001.031-.275l-3.15-5.453z" fill="#2684FC"/>
  <path d="M12 8.727L8.85 3.275a2.08 2.08 0 00-.756.756l-5.82 10.08c-.179.314-.274.67-.274 1.031h6.3L12 8.727z" fill="#00AC47"/>
  <path d="M18.816 9.071l-2.91-5.04a2.08 2.08 0 00-.756-.756L12 8.727l3.7 6.415h6.289c0-.355-.092-.71-.275-1.03l-2.898-5.04z" fill="#FFBA00"/>
</svg>
